Sources/FrostedUI/Resources/Icons.xcassets/creditCardFilled24.imageset/credit-card-filled-24.svg

<svg width="24" height="24" viewBox="0 0 24 24" fill="none" xmlns="http://www.w3.org/2000/svg" data-fui-icon="true">
  <path d="M0 6.57C0 4.59834 1.59834 3 3.57 3H20.43C22.4017 3 24 4.59834 24 6.57V8H0V6.57Z" fill="currentColor" />
  <path
    fill-rule="evenodd"
    clip-rule="evenodd"
    d="M0 10V17.43C0 19.4017 1.59834 21 3.57 21H20.43C22.4017 21 24 19.4017 24 17.43V10H0ZM3.75 16C3.75 15.4477 4.19772 15 4.75 15H9.25C9.80228 15 10.25 15.4477 10.25 16C10.25 16.5523 9.80228 17 9.25 17H4.75C4.19772 17 3.75 16.5523 3.75 16Z"
    fill="currentColor"
  />
</svg>

<svg xmlns="http://www.w3.org/2000/svg" width="24" height="24" fill="none" data-fui-icon="true" viewBox="0 0 24 24"><path fill="currentColor" d="M0 6.57A3.57 3.57 0 0 1 3.57 3h16.86A3.57 3.57 0 0 1 24 6.57V8H0z"/><path fill="currentColor" fill-rule="evenodd" d="M0 10v7.43A3.57 3.57 0 0 0 3.57 21h16.86A3.57 3.57 0 0 0 24 17.43V10zm3.75 6a1 1 0 0 1 1-1h4.5a1 1 0 1 1 0 2h-4.5a1 1 0 0 1-1-1" clip-rule="evenodd"/></svg>
